svg/book_music.svg

<svg xmlns="http://www.w3.org/2000/svg" viewBox="0 0 24 24"><path d="M13 20.5c0 .53.09 1.03.26 1.5H6c-1.11 0-2-.89-2-2V4a2 2 0 0 1 2-2h1v7l2.5-1.5L12 9V2h6a2 2 0 0 1 2 2v7h-3.5v5.11c-2 .46-3.5 2.25-3.5 4.39m7-7.5h-1.5v5.21a2.5 2.5 0 1 0-1 4.79 2.5 2.5 0 0 0 2.5-2.5V15h2v-2z"/></svg>

<?xml version="1.0" encoding="UTF-8"?><!DOCTYPE svg PUBLIC "-//W3C//DTD SVG 1.1//EN" "http://www.w3.org/Graphics/SVG/1.1/DTD/svg11.dtd"><svg xmlns="http://www.w3.org/2000/svg" xmlns:xlink="http://www.w3.org/1999/xlink" version="1.1" id="mdi-book-music" width="24" height="24" viewBox="0 0 24 24"><path d="M13 20.5C13 21.03 13.09 21.53 13.26 22H6C4.89 22 4 21.11 4 20V4C4 2.9 4.89 2 6 2H7V9L9.5 7.5L12 9V2H18C19.1 2 20 2.89 20 4V11H16.5V16.11C14.5 16.57 13 18.36 13 20.5M20 13H18.5V18.21C18.19 18.07 17.86 18 17.5 18C16.12 18 15 19.12 15 20.5S16.12 23 17.5 23 20 21.88 20 20.5V15H22V13H20Z" /></svg>
